packages/kaspersky-hexa-ui-icons/src/iconsSVGs/16/Unchecked.svg

<svg width="16" height="16" viewBox="0 0 16 16" fill="none" xmlns="http://www.w3.org/2000/svg">
<path fill-rule="evenodd" clip-rule="evenodd" d="M3.3501 5.5001C3.3501 4.31269 4.31269 3.3501 5.5001 3.3501H10.5001C11.6875 3.3501 12.6501 4.31269 12.6501 5.5001V10.5001C12.6501 11.6875 11.6875 12.6501 10.5001 12.6501H5.5001C4.31269 12.6501 3.3501 11.6875 3.3501 10.5001V5.5001ZM5.5001 4.6501C5.03066 4.6501 4.6501 5.03066 4.6501 5.5001V10.5001C4.6501 10.9695 5.03066 11.3501 5.5001 11.3501H10.5001C10.9695 11.3501 11.3501 10.9695 11.3501 10.5001V5.5001C11.3501 5.03066 10.9695 4.6501 10.5001 4.6501H5.5001Z" fill="black"/>
</svg>

<svg xmlns="http://www.w3.org/2000/svg" width="16" height="16" fill="none" viewBox="0 0 16 16"><path fill="#000" fill-rule="evenodd" d="M3.35 5.5c0-1.1874.9626-2.15 2.15-2.15h5c1.1874 0 2.15.9626 2.15 2.15v5c0 1.1874-.9626 2.15-2.15 2.15h-5c-1.1874 0-2.15-.9626-2.15-2.15zm2.15-.85a.85.85 0 0 0-.85.85v5a.85.85 0 0 0 .85.85h5a.85.85 0 0 0 .85-.85v-5a.85.85 0 0 0-.85-.85z"/></svg>
